icons/numix/24x24/status/steam_tray_mono.svg

<?xml version="1.0" encoding="UTF-8" standalone="no"?>
<svg
   xmlns:dc="http://purl.org/dc/elements/1.1/"
   xmlns:cc="http://creativecommons.org/ns#"
   xmlns:rdf="http://www.w3.org/1999/02/22-rdf-syntax-ns#"
   xmlns:svg="http://www.w3.org/2000/svg"
   xmlns="http://www.w3.org/2000/svg"
   xmlns:sodipodi="http://sodipodi.sourceforge.net/DTD/sodipodi-0.dtd"
   xmlns:inkscape="http://www.inkscape.org/namespaces/inkscape"
   width="24"
   height="24"
   viewBox="0 0 24 24"
   id="svg2"
   version="1.1"
   inkscape:version="0.48.5 r10040"
   sodipodi:docname="steam_tray_mono.svg">
  <metadata
     id="metadata48">
    <rdf:RDF>
      <cc:Work
         rdf:about="">
        <dc:format>image/svg+xml</dc:format>
        <dc:type
           rdf:resource="http://purl.org/dc/dcmitype/StillImage" />
      </cc:Work>
    </rdf:RDF>
  </metadata>
  <sodipodi:namedview
     pagecolor="#ffffff"
     bordercolor="#666666"
     borderopacity="1"
     objecttolerance="10"
     gridtolerance="10"
     guidetolerance="10"
     inkscape:pageopacity="0"
     inkscape:pageshadow="2"
     inkscape:window-width="1280"
     inkscape:window-height="998"
     id="namedview46"
     showgrid="false"
     inkscape:zoom="9.8333333"
     inkscape:cx="12"
     inkscape:cy="12"
     inkscape:window-x="0"
     inkscape:window-y="0"
     inkscape:window-maximized="1"
     inkscape:current-layer="svg2" />
  <defs
     id="defs4">
    <filter
       id="0"
       filterUnits="objectBoundingBox"
       x="0"
       y="0"
       width="24"
       height="24">
      <feColorMatrix
         type="matrix"
         in="SourceGraphic"
         values="0 0 0 0 1 0 0 0 0 1 0 0 0 0 1 0 0 0 1 0"
         id="feColorMatrix7" />
    </filter>
    <mask
       id="1">
      <g
         filter="url(#0)"
         id="g10">
        <rect
           width="24"
           height="24"
           fill-opacity="0.302"
           id="rect12" />
      </g>
    </mask>
    <clipPath
       id="2">
      <rect
         width="24"
         height="24"
         id="rect15" />
    </clipPath>
    <g
       id="3"
       clip-path="url(#2)">
      <path
         d="M 17.523438 4.363281 C 15.160156 4.363281 13.226562 6.328125 13.226562 8.730469 C 13.226562 11.128906 15.160156 13.09375 17.523438 13.09375 C 19.882812 13.09375 21.816406 11.128906 21.816406 8.726562 C 21.816406 6.328125 19.882812 4.363281 17.523438 4.363281 Z M 17.523438 5.828125 C 19.109375 5.828125 20.375 7.113281 20.375 8.730469 C 20.375 10.34375 19.109375 11.628906 17.523438 11.628906 C 15.933594 11.628906 14.667969 10.34375 14.667969 8.730469 C 14.667969 7.113281 15.933594 5.828125 17.523438 5.828125 Z "
         id="path18" />
      <path
         d="M 19.363281 8.722656 C 19.363281 9.757812 18.539062 10.59375 17.519531 10.59375 C 16.503906 10.59375 15.679688 9.757812 15.679688 8.722656 C 15.679688 7.691406 16.503906 6.851562 17.519531 6.851562 C 18.539062 6.851562 19.363281 7.691406 19.363281 8.722656 Z "
         id="path20" />
      <path
         d="M 13.839844 10.59375 L 13.839844 16.207031 L 16.90625 16.828125 L 19.527344 12.175781 L 16.789062 12.175781 Z "
         id="path22" />
      <path
         d="M 14.453125 15.582031 C 12.765625 15.582031 11.382812 16.988281 11.382812 18.699219 C 11.382812 20.414062 12.765625 21.816406 14.453125 21.816406 C 16.140625 21.816406 17.519531 20.414062 17.519531 18.699219 C 17.519531 16.988281 16.140625 15.582031 14.453125 15.582031 Z M 14.453125 16.628906 C 15.585938 16.628906 16.492188 17.546875 16.492188 18.699219 C 16.492188 19.851562 15.585938 20.773438 14.453125 20.773438 C 13.316406 20.773438 12.414062 19.851562 12.414062 18.699219 C 12.414062 17.546875 13.316406 16.628906 14.453125 16.628906 Z "
         id="path24" />
      <path
         d="M 5.25 11.21875 C 3.5625 11.21875 2.183594 12.621094 2.183594 14.335938 C 2.183594 16.046875 3.5625 17.453125 5.25 17.453125 C 6.9375 17.453125 8.320312 16.046875 8.320312 14.335938 C 8.320312 12.621094 6.9375 11.21875 5.25 11.21875 Z M 5.246094 12.464844 C 6.472656 12.464844 7.085938 13.085938 7.085938 14.335938 C 7.085938 15.582031 6.472656 16.207031 5.246094 16.207031 C 4.019531 16.207031 3.402344 15.582031 3.402344 14.335938 C 3.402344 13.085938 4.019531 12.464844 5.246094 12.464844 Z "
         id="path26" />
      <path
         d="M 5.925781 13.21875 C 5.226562 12.921875 4.425781 13.25 4.128906 13.957031 C 3.832031 14.664062 4.160156 15.480469 4.855469 15.78125 L 13.972656 19.945312 C 14.671875 20.246094 15.472656 19.917969 15.769531 19.210938 C 16.066406 18.503906 15.738281 17.683594 15.042969 17.386719 Z "
         id="path28" />
    </g>
  </defs>
  <path
     style="fill:#ececec;fill-opacity:1"
     inkscape:connector-curvature="0"
     id="path34"
     d="m 17.523438,3.273438 c -2.363282,0 -4.296876,1.964843 -4.296876,4.363281 0,2.398437 1.933594,4.367187 4.296876,4.367187 2.359374,0 4.292968,-1.96875 4.292968,-4.367187 0,-2.398438 -1.933594,-4.363281 -4.292968,-4.363281 z m 0,1.464843 c 1.585937,0 2.851562,1.285157 2.851562,2.898438 0,1.613281 -1.265625,2.902343 -2.851562,2.902343 -1.589844,0 -2.855469,-1.289062 -2.855469,-2.902343 0,-1.613281 1.265625,-2.898438 2.855469,-2.898438 z" />
  <path
     style="fill:#ececec;fill-opacity:1"
     inkscape:connector-curvature="0"
     id="path36"
     d="m 19.363281,7.632812 c 0,1.03125 -0.824219,1.871094 -1.84375,1.871094 -1.015625,0 -1.839843,-0.839844 -1.839843,-1.871094 0,-1.035156 0.824218,-1.871093 1.839843,-1.871093 1.019531,0 1.84375,0.835937 1.84375,1.871093 z" />
  <path
     style="fill:#ececec;fill-opacity:1"
     inkscape:connector-curvature="0"
     id="path38"
     d="m 13.839844,9.503906 0,5.613282 3.066406,0.621093 2.621094,-4.65625 -2.738282,0 z" />
  <path
     style="fill:#ececec;fill-opacity:1"
     inkscape:connector-curvature="0"
     id="path40"
     d="m 14.453125,14.492188 c -1.6875,0 -3.070313,1.402343 -3.070313,3.117187 0,1.714844 1.382813,3.117187 3.070313,3.117187 1.683594,0 3.066406,-1.402343 3.066406,-3.117187 0,-1.714844 -1.382812,-3.117187 -3.066406,-3.117187 z m 0,1.046874 c 1.132813,0 2.039063,0.917969 2.039063,2.070313 0,1.152344 -0.90625,2.070313 -2.039063,2.070313 -1.136719,0 -2.039063,-0.917969 -2.039063,-2.070313 0,-1.152344 0.902344,-2.070313 2.039063,-2.070313 z" />
  <path
     style="fill:#ececec;fill-opacity:1"
     inkscape:connector-curvature="0"
     id="path42"
     d="m 5.25,10.125 c -1.6875,0 -3.066406,1.40625 -3.066406,3.121094 0,1.710937 1.378906,3.117187 3.066406,3.117187 1.6875,0 3.070312,-1.40625 3.070312,-3.117187 C 8.320312,11.53125 6.9375,10.125 5.25,10.125 z m -0.00391,1.25 c 1.226562,0 1.839844,0.621094 1.839844,1.871094 0,1.246094 -0.613282,1.867187 -1.839844,1.867187 -1.230469,0 -1.84375,-0.621093 -1.84375,-1.867187 0,-1.25 0.613281,-1.871094 1.84375,-1.871094 z" />
  <path
     style="fill:#ececec;fill-opacity:1"
     inkscape:connector-curvature="0"
     id="path44"
     d="m 5.921875,12.128906 c -0.695313,-0.300781 -1.5,0.03125 -1.792969,0.738282 -0.296875,0.707031 0.027344,1.523437 0.726563,1.824218 l 9.117187,4.164063 c 0.695313,0.300781 1.5,-0.03125 1.796875,-0.738281 0.292969,-0.707032 -0.03125,-1.523438 -0.726562,-1.824219 z" />
</svg>

<svg xmlns="http://www.w3.org/2000/svg" xmlns:xlink="http://www.w3.org/1999/xlink" width="24" height="24" viewBox="0 0 24 24">
 <defs>
  <filter id="0" filterUnits="objectBoundingBox" x="0" y="0" width="24" height="24">
   <feColorMatrix type="matrix" in="SourceGraphic" values="0 0 0 0 1 0 0 0 0 1 0 0 0 0 1 0 0 0 1 0"/>
  </filter>
  <mask id="1">
   <g filter="url(#0)">
    <rect width="24" height="24" fill-opacity="0.302"/>
   </g>
  </mask>
  <clipPath id="2">
   <rect width="24" height="24"/>
  </clipPath>
  <g id="3" clip-path="url(#2)">
   <path d="M 17.523438 4.363281 C 15.160156 4.363281 13.226562 6.328125 13.226562 8.730469 C 13.226562 11.128906 15.160156 13.09375 17.523438 13.09375 C 19.882812 13.09375 21.816406 11.128906 21.816406 8.726562 C 21.816406 6.328125 19.882812 4.363281 17.523438 4.363281 Z M 17.523438 5.828125 C 19.109375 5.828125 20.375 7.113281 20.375 8.730469 C 20.375 10.34375 19.109375 11.628906 17.523438 11.628906 C 15.933594 11.628906 14.667969 10.34375 14.667969 8.730469 C 14.667969 7.113281 15.933594 5.828125 17.523438 5.828125 Z "/>
   <path d="M 19.363281 8.722656 C 19.363281 9.757812 18.539062 10.59375 17.519531 10.59375 C 16.503906 10.59375 15.679688 9.757812 15.679688 8.722656 C 15.679688 7.691406 16.503906 6.851562 17.519531 6.851562 C 18.539062 6.851562 19.363281 7.691406 19.363281 8.722656 Z "/>
   <path d="M 13.839844 10.59375 L 13.839844 16.207031 L 16.90625 16.828125 L 19.527344 12.175781 L 16.789062 12.175781 Z "/>
   <path d="M 14.453125 15.582031 C 12.765625 15.582031 11.382812 16.988281 11.382812 18.699219 C 11.382812 20.414062 12.765625 21.816406 14.453125 21.816406 C 16.140625 21.816406 17.519531 20.414062 17.519531 18.699219 C 17.519531 16.988281 16.140625 15.582031 14.453125 15.582031 Z M 14.453125 16.628906 C 15.585938 16.628906 16.492188 17.546875 16.492188 18.699219 C 16.492188 19.851562 15.585938 20.773438 14.453125 20.773438 C 13.316406 20.773438 12.414062 19.851562 12.414062 18.699219 C 12.414062 17.546875 13.316406 16.628906 14.453125 16.628906 Z "/>
   <path d="M 5.25 11.21875 C 3.5625 11.21875 2.183594 12.621094 2.183594 14.335938 C 2.183594 16.046875 3.5625 17.453125 5.25 17.453125 C 6.9375 17.453125 8.320312 16.046875 8.320312 14.335938 C 8.320312 12.621094 6.9375 11.21875 5.25 11.21875 Z M 5.246094 12.464844 C 6.472656 12.464844 7.085938 13.085938 7.085938 14.335938 C 7.085938 15.582031 6.472656 16.207031 5.246094 16.207031 C 4.019531 16.207031 3.402344 15.582031 3.402344 14.335938 C 3.402344 13.085938 4.019531 12.464844 5.246094 12.464844 Z "/>
   <path d="M 5.925781 13.21875 C 5.226562 12.921875 4.425781 13.25 4.128906 13.957031 C 3.832031 14.664062 4.160156 15.480469 4.855469 15.78125 L 13.972656 19.945312 C 14.671875 20.246094 15.472656 19.917969 15.769531 19.210938 C 16.066406 18.503906 15.738281 17.683594 15.042969 17.386719 Z "/>
  </g>
 </defs>
 <g>
  <use xlink:href="#3" mask="url(#1)"/>
  <path d="M 17.523438 3.273438 C 15.160156 3.273438 13.226562 5.238281 13.226562 7.636719 C 13.226562 10.035156 15.160156 12.003906 17.523438 12.003906 C 19.882812 12.003906 21.816406 10.035156 21.816406 7.636719 C 21.816406 5.238281 19.882812 3.273438 17.523438 3.273438 Z M 17.523438 4.738281 C 19.109375 4.738281 20.375 6.023438 20.375 7.636719 C 20.375 9.25 19.109375 10.539062 17.523438 10.539062 C 15.933594 10.539062 14.667969 9.25 14.667969 7.636719 C 14.667969 6.023438 15.933594 4.738281 17.523438 4.738281 Z " fill="#dcdcdc"/>
  <path d="M 19.363281 7.632812 C 19.363281 8.664062 18.539062 9.503906 17.519531 9.503906 C 16.503906 9.503906 15.679688 8.664062 15.679688 7.632812 C 15.679688 6.597656 16.503906 5.761719 17.519531 5.761719 C 18.539062 5.761719 19.363281 6.597656 19.363281 7.632812 Z " fill="#dcdcdc"/>
  <path d="M 13.839844 9.503906 L 13.839844 15.117188 L 16.90625 15.738281 L 19.527344 11.082031 L 16.789062 11.082031 Z " fill="#dcdcdc"/>
  <path d="M 14.453125 14.492188 C 12.765625 14.492188 11.382812 15.894531 11.382812 17.609375 C 11.382812 19.324219 12.765625 20.726562 14.453125 20.726562 C 16.136719 20.726562 17.519531 19.324219 17.519531 17.609375 C 17.519531 15.894531 16.136719 14.492188 14.453125 14.492188 Z M 14.453125 15.539062 C 15.585938 15.539062 16.492188 16.457031 16.492188 17.609375 C 16.492188 18.761719 15.585938 19.679688 14.453125 19.679688 C 13.316406 19.679688 12.414062 18.761719 12.414062 17.609375 C 12.414062 16.457031 13.316406 15.539062 14.453125 15.539062 Z " fill="#dcdcdc"/>
  <path d="M 5.25 10.125 C 3.5625 10.125 2.183594 11.53125 2.183594 13.246094 C 2.183594 14.957031 3.5625 16.363281 5.25 16.363281 C 6.9375 16.363281 8.320312 14.957031 8.320312 13.246094 C 8.320312 11.53125 6.9375 10.125 5.25 10.125 Z M 5.246094 11.375 C 6.472656 11.375 7.085938 11.996094 7.085938 13.246094 C 7.085938 14.492188 6.472656 15.113281 5.246094 15.113281 C 4.015625 15.113281 3.402344 14.492188 3.402344 13.246094 C 3.402344 11.996094 4.015625 11.375 5.246094 11.375 Z " fill="#dcdcdc"/>
  <path d="M 5.921875 12.128906 C 5.226562 11.828125 4.421875 12.160156 4.128906 12.867188 C 3.832031 13.574219 4.15625 14.390625 4.855469 14.691406 L 13.972656 18.855469 C 14.667969 19.15625 15.472656 18.824219 15.769531 18.117188 C 16.0625 17.410156 15.738281 16.59375 15.042969 16.292969 Z " fill="#dcdcdc"/>
 </g>
</svg>
